X: 23306
T: Left Handed Fiddler, The
R: reel
M: 4/4
K: Gmajor
c|BGBd g2(dc)|BGDG FAAc|BGBd gdec|dBcA BGGc|
BGBd g2 (dc)|BGDG FAAF|GBAc Bdce|dBcA BGGf|
g2 dg Bgdg|Bgdg ABcA|g2 dg Bgdg|ABcA BGGf|
g2 dg Bgdg|Bgdg ABcA|BGcA dgfe|dBcA BG G2||

